packages/kaspersky-hexa-ui-icons/src/iconsSVGs/32/BrainHeadMind.svg

<svg width="32" height="32" viewBox="0 0 32 32" fill="none" xmlns="http://www.w3.org/2000/svg">
<path fill-rule="evenodd" clip-rule="evenodd" d="M19.8182 30.003C22.2963 30.003 24.3374 28.1321 24.6063 25.7258C24.6465 25.7269 24.6868 25.7275 24.7273 25.7275C27.087 25.7275 29 23.8145 29 21.4548C29 20.3361 28.5699 19.3186 27.8677 18.5577C28.5736 17.7199 29 16.6372 29 15.4546C29 14.0319 28.3833 12.7543 27.4047 11.8731C27.7251 11.3229 27.9091 10.6827 27.9091 9.99998C27.9091 7.94146 26.2403 6.27271 24.1818 6.27271C23.9649 6.27271 23.7522 6.29124 23.5455 6.32681V6.27566C23.5455 3.91589 21.6325 2.00293 19.2727 2.00293C17.959 2.00293 16.7838 2.59581 16 3.5286C15.2162 2.59581 14.041 2.00293 12.7273 2.00293C10.3675 2.00293 8.45455 3.91589 8.45455 6.27566V6.32681C8.24776 6.29124 8.03515 6.27271 7.8182 6.27271C5.75969 6.27271 4.09093 7.94146 4.09093 9.99998C4.09093 10.6827 4.27495 11.3229 4.59533 11.8731C3.61673 12.7543 3 14.0319 3 15.4546C3 16.6372 3.42646 17.7199 4.13235 18.5577C3.43015 19.3186 3.00002 20.3361 3.00002 21.4548C3.00002 23.8145 4.91299 25.7275 7.27275 25.7275C7.31318 25.7275 7.35349 25.7269 7.39368 25.7258C7.66256 28.1321 9.70372 30.003 12.1818 30.003C13.7364 30.003 15.119 29.2667 16 28.1239C16.881 29.2667 18.2636 30.003 19.8182 30.003ZM19.2727 4.00293C18.0175 4.00293 17 5.02046 17 6.27566V12.1819C17 13.1358 17.7733 13.9092 18.7273 13.9092C19.1171 13.9092 19.4743 13.7811 19.763 13.5642C20.2046 13.2325 20.8315 13.3215 21.1632 13.7631C21.4949 14.2047 21.4058 14.8315 20.9643 15.1632C20.89 15.219 20.8135 15.2721 20.735 15.3224C20.8659 15.5392 21.0403 15.7195 21.2432 15.8568C21.7005 16.1664 21.8203 16.7881 21.5108 17.2455C21.2012 17.7028 20.5795 17.8227 20.1221 17.5131C19.5513 17.1267 19.082 16.5787 18.7925 15.9086C18.7708 15.909 18.7491 15.9092 18.7273 15.9092C18.1039 15.9092 17.5164 15.7561 17 15.4856V21.248C17.234 21.0768 17.4839 20.9262 17.747 20.7992C18.2443 20.559 18.8422 20.7675 19.0823 21.2649C19.3225 21.7622 19.114 22.3601 18.6167 22.6002C17.6625 23.0609 17 24.0561 17 25.1848C17 26.7412 18.2617 28.003 19.8182 28.003C21.3746 28.003 22.6364 26.7412 22.6364 25.1848C22.6364 25.0335 22.6245 24.8855 22.6019 24.7417C22.5944 24.7089 22.5885 24.6756 22.5843 24.642L22.5795 24.618C22.4693 24.0768 22.8186 23.5487 23.3597 23.4384C23.6811 23.3729 23.9978 23.4695 24.2252 23.6721C24.3861 23.7083 24.554 23.7275 24.7273 23.7275C25.9825 23.7275 27 22.71 27 21.4548C27 20.8 26.7234 20.2092 26.2785 19.7936C25.6441 20.1006 24.9322 20.2728 24.1818 20.2728C23.6295 20.2728 23.1818 19.8251 23.1818 19.2728C23.1818 18.7205 23.6295 18.2728 24.1818 18.2728C24.7584 18.2728 25.2918 18.1007 25.7371 17.8053C26.5003 17.2989 27 16.4349 27 15.4546C27 14.4105 26.4325 13.4975 25.585 13.0098C25.4355 12.9517 25.2979 12.8567 25.1867 12.726C25.0914 12.614 25.025 12.487 24.987 12.3543C24.9147 12.1134 24.9326 11.8451 25.0581 11.6045C25.1386 11.4501 25.2538 11.3255 25.3891 11.2353C25.7112 10.9206 25.9091 10.4838 25.9091 9.99998C25.9091 9.04603 25.1358 8.27271 24.1818 8.27271C23.2279 8.27271 22.4545 9.04603 22.4545 9.99998C22.4545 10.5523 22.0068 11 21.4545 11C20.9023 11 20.4545 10.5523 20.4545 9.99998C20.4545 8.97111 20.8714 8.03961 21.5455 7.36517V6.27566C21.5455 5.02046 20.5279 4.00293 19.2727 4.00293ZM9.41567 24.642C9.41723 24.634 9.41883 24.626 9.42046 24.618C9.53074 24.0768 9.18145 23.5487 8.64029 23.4384C8.31893 23.3729 8.00218 23.4695 7.77479 23.6721C7.6139 23.7083 7.446 23.7275 7.27275 23.7275C6.01756 23.7275 5.00002 22.71 5.00002 21.4548C5.00002 20.8 5.27656 20.2092 5.72148 19.7936C6.35596 20.1006 7.06785 20.2728 7.81818 20.2728C8.37047 20.2728 8.81818 19.8251 8.81818 19.2728C8.81818 18.7205 8.37047 18.2728 7.81818 18.2728C7.24159 18.2728 6.70823 18.1007 6.26295 17.8053C5.49971 17.2989 5 16.4349 5 15.4546C5 14.4105 5.5675 13.4975 6.41502 13.0098C6.56449 12.9517 6.7021 12.8567 6.81332 12.726C6.90864 12.614 6.97496 12.487 7.01304 12.3543C7.08534 12.1134 7.06739 11.8452 6.94191 11.6045C6.86139 11.4501 6.74622 11.3255 6.61089 11.2353C6.28885 10.9206 6.09093 10.4838 6.09093 9.99998C6.09093 9.04603 6.86426 8.27271 7.8182 8.27271C8.77215 8.27271 9.54548 9.04603 9.54548 9.99998C9.54548 10.5523 9.99319 11 10.5455 11C11.0978 11 11.5455 10.5523 11.5455 9.99998C11.5455 8.97111 11.1286 8.03961 10.4546 7.36517V6.27566C10.4546 5.02046 11.4721 4.00293 12.7273 4.00293C13.9825 4.00293 15 5.02046 15 6.27566V12.1819C15 13.1358 14.2267 13.9092 13.2727 13.9092C12.8829 13.9092 12.5257 13.7811 12.237 13.5642C11.7954 13.2325 11.1685 13.3215 10.8368 13.7631C10.5051 14.2047 10.5942 14.8315 11.0358 15.1632C11.11 15.219 11.1865 15.2721 11.265 15.3224C11.1341 15.5392 10.9597 15.7195 10.7569 15.8568C10.2995 16.1664 10.1797 16.7881 10.4892 17.2455C10.7988 17.7028 11.4205 17.8227 11.8779 17.5131C12.4488 17.1267 12.918 16.5787 13.2075 15.9086C13.2292 15.909 13.2509 15.9092 13.2727 15.9092C13.8961 15.9092 14.4837 15.7561 15 15.4856V21.248C14.766 21.0768 14.5161 20.9262 14.253 20.7992C13.7557 20.559 13.1578 20.7675 12.9177 21.2649C12.6775 21.7622 12.886 22.3601 13.3834 22.6002C14.3375 23.0609 15 24.0561 15 25.1848C15 26.7412 13.7383 28.003 12.1818 28.003C10.6254 28.003 9.36364 26.7412 9.36364 25.1848C9.36364 25.0335 9.37548 24.8855 9.39813 24.7417C9.40563 24.7089 9.4115 24.6756 9.41567 24.642Z" fill="black"/>
</svg>

<svg xmlns="http://www.w3.org/2000/svg" width="32" height="32" fill="none" viewBox="0 0 32 32"><path fill="#000" fill-rule="evenodd" d="M19.8182 30.003c2.4781 0 4.5192-1.8709 4.7881-4.2772q.0603.0017.121.0017c2.3597 0 4.2727-1.913 4.2727-4.2727 0-1.1187-.4301-2.1362-1.1323-2.8971A4.8 4.8 0 0 0 29 15.4546c0-1.4227-.6167-2.7003-1.5953-3.5815A3.71 3.71 0 0 0 27.9091 10c0-2.0585-1.6688-3.7273-3.7273-3.7273-.2169 0-.4296.0185-.6363.0541v-.0511c0-2.3598-1.913-4.2728-4.2728-4.2728-1.3137 0-2.4889.593-3.2727 1.5257-.7838-.9328-1.959-1.5257-3.2727-1.5257-2.3598 0-4.2727 1.913-4.2727 4.2728v.0511a3.75 3.75 0 0 0-.6364-.054c-2.0585 0-3.7273 1.6687-3.7273 3.7272 0 .6827.184 1.3229.5044 1.8731C3.6167 12.7543 3 14.0319 3 15.4546c0 1.1826.4265 2.2653 1.1323 3.1031C3.4302 19.3186 3 20.3361 3 21.4548c0 2.3597 1.913 4.2727 4.2728 4.2727q.0606 0 .1209-.0017c.2689 2.4063 2.31 4.2772 4.7881 4.2772 1.5546 0 2.9372-.7363 3.8182-1.8791.881 1.1428 2.2636 1.8791 3.8182 1.8791m-.5455-26C18.0175 4.003 17 5.0204 17 6.2756v5.9062c0 .9539.7733 1.7273 1.7273 1.7273a1.715 1.715 0 0 0 1.0357-.345c.4416-.3317 1.0685-.2427 1.4002.1989s.2426 1.0684-.1989 1.4001a3.8 3.8 0 0 1-.2293.1592c.1309.2168.3053.3971.5082.5344.4573.3096.5771.9313.2676 1.3887-.3096.4573-.9313.5772-1.3887.2676a3.714 3.714 0 0 1-1.3296-1.6045A3.71 3.71 0 0 1 17 15.4856v5.7624a4.8 4.8 0 0 1 .747-.4488c.4973-.2402 1.0952-.0317 1.3353.4657.2402.4973.0317 1.0952-.4656 1.3353C17.6625 23.0609 17 24.0561 17 25.1848c0 1.5564 1.2617 2.8182 2.8182 2.8182s2.8182-1.2618 2.8182-2.8182c0-.1513-.0119-.2993-.0345-.4431a1 1 0 0 1-.0176-.0997l-.0048-.024c-.1102-.5412.2391-1.0693.7802-1.1796a.998.998 0 0 1 .8655.2337c.1609.0362.3288.0554.5021.0554C25.9825 23.7275 27 22.71 27 21.4548a2.266 2.266 0 0 0-.7215-1.6612 4.8 4.8 0 0 1-2.0967.4792c-.5523 0-1-.4477-1-1s.4477-1 1-1c.5766 0 1.11-.1721 1.5553-.4675C26.5003 17.2989 27 16.4349 27 15.4546c0-1.0441-.5675-1.9571-1.415-2.4448a.995.995 0 0 1-.3983-.2838 1 1 0 0 1-.1997-.3717.997.997 0 0 1 .0711-.7498.995.995 0 0 1 .331-.3692c.3221-.3147.52-.7515.52-1.2353 0-.954-.7733-1.7273-1.7273-1.7273-.9539 0-1.7273.7733-1.7273 1.7273 0 .5523-.4477 1-1 1s-1-.4477-1-1c0-1.0289.4169-1.9604 1.091-2.6348V6.2757c0-1.2552-1.0176-2.2728-2.2728-2.2728m-9.857 20.639.0048-.024c.1102-.5412-.239-1.0693-.7802-1.1796a.998.998 0 0 0-.8655.2337 2.3 2.3 0 0 1-.502.0554C6.0176 23.7275 5 22.71 5 21.4548a2.266 2.266 0 0 1 .7215-1.6612 4.8 4.8 0 0 0 2.0967.4792c.5523 0 1-.4477 1-1s-.4477-1-1-1c-.5766 0-1.11-.1721-1.5552-.4675C5.4997 17.2989 5 16.4349 5 15.4546c0-1.0441.5675-1.9571 1.415-2.4448a.995.995 0 0 0 .3983-.2838 1 1 0 0 0 .1997-.3717.997.997 0 0 0-.071-.7498.995.995 0 0 0-.3311-.3692A1.72 1.72 0 0 1 6.0909 10c0-.954.7734-1.7273 1.7273-1.7273S9.5455 9.046 9.5455 10c0 .5523.4477 1 1 1s1-.4477 1-1c0-1.0289-.4169-1.9604-1.0909-2.6348V6.2757c0-1.2552 1.0175-2.2728 2.2727-2.2728S15 5.0205 15 6.2757v5.9062c0 .9539-.7733 1.7273-1.7273 1.7273a1.715 1.715 0 0 1-1.0357-.345c-.4416-.3317-1.0685-.2427-1.4002.1989s-.2426 1.0684.199 1.4001q.1114.0837.2292.1592a1.72 1.72 0 0 1-.5081.5344c-.4574.3096-.5772.9313-.2677 1.3887.3096.4573.9313.5772 1.3887.2676a3.713 3.713 0 0 0 1.3296-1.6045A3.71 3.71 0 0 0 15 15.4856v5.7624a4.8 4.8 0 0 0-.747-.4488c-.4973-.2402-1.0952-.0317-1.3353.4657-.2402.4973-.0317 1.0952.4657 1.3353.9541.4607 1.6166 1.4559 1.6166 2.5846 0 1.5564-1.2617 2.8182-2.8182 2.8182s-2.8182-1.2618-2.8182-2.8182c0-.1513.0119-.2993.0345-.4431a1 1 0 0 0 .0176-.0997"/></svg>
